rospo-dark/symbolic/status/nvidia-ram-symbolic.svg

<svg xmlns="http://www.w3.org/2000/svg" width="16" height="16" version="1.1">
 <path style="fill:#d3dae3" d="M 2e-4,13 C 2e-4,13.554 0.4462,14 1.0002,14 H 2.0002 3.0002 4.0002 5.0002 6.0002 V 12 H 4.0002 3.0002 2.0002 2e-4 Z M 2e-4,11 H 1.0002 9.0002 10 14 15 16 V 9 8 A 1,1 0 0 1 15,7 1,1 0 0 1 15.93,6.002 1.5,1.5 0 0 1 16,6 V 5 4.5 4 C 16,3.446 15.554,3 15,3 L 14.5,3 H 14 1.9999 1.4999 0.9999 C 0.4459,3 -1e-4,3.446 -1e-4,4 L -1e-4,4.5 -1e-4,5 -1e-4,6 A 1,1 0 0 1 0.0999,6.006 1,1 0 0 1 1.0002,7 1,1 0 0 1 2e-4,8 L 2e-4,9 2e-4,9.9999 2e-4,11 Z M 3.0002,9 3.0002,5 H 5.0002 L 5.0002,9 Z M 7.0002,9 7.0002,5 H 9.0002 V 9 Z M 8.0002,14 H 9.0002 10 11 12 13 14 15 C 15.554,14 16,13.554 16,13 V 12 H 14 13 12 11 9.0002 8.0002 Z M 11,9 V 5 H 13 V 9 Z"/>
</svg>

<svg height="16" width="16" xmlns="http://www.w3.org/2000/svg"><path d="m .0002 13c0 .554.446 1 1 1h1 1 1 1 1v-2h-2-1-1-2zm0-2h1 8 .9998 4 1 1v-2-1a1 1 0 0 1 -1-1 1 1 0 0 1  .93-.998 1.5 1.5 0 0 1  .07-.002v-1-.5-.5c0-.554-.446-1-1-1h-.5-.5-12.0001-.5-.5c-.554 0-1 .446-1 1v .5.5 1a1 1 0 0 1  .1.006 1 1 0 0 1  .9003.994 1 1 0 0 1 -1 1v1 .9999zm3-2v-4h2v4zm4 0v-4h2v4zm1 5h1 .9998 1 1 1 1 1c .554 0 1-.446 1-1v-1h-2-1-1-1-1.9998-1zm2.9998-5v-4h2v4z" fill="#d3dae3"/></svg>
